X:1
T:Content desir 3v
T:Tielman Susato
T:Source :  Le premier Livre des Chansons à 3 parties---Anvers---T.Susato---1544. Editor : André Vierendeels (30/01/15).
T:Notes : Original clefs : G2, C3, C4 Original note values have been halved Editorial accidentals above the staff Notice above the T voice :"Chantez a deux si bon vous samble, puis chanterez tous trois ensemble"
%%score [ 1 [ 2 3 ] ]
L:1/8
Q:1/4=76
M:4/4
K:C
V:1 treble nm="Superius" snm="S"
V:2 treble nm="Altus" snm="A"
V:3 treble-8 nm="Tenor" snm="T"
V:1
 A8 | c4 d3 e | f2 e3 d cB | A4 z2 A2 | A2 G2 c4- | c2 B2 AB cA | B2 A4 G2 | A4 z2 c2 | %8
w: Con-|tent de- *|* sir _ _ _|_ qui|cau- se ma|_ _ dou- * * *||leur, heu-|
 d2 e3 d cB | c4 z2 e2 | e2 d2 e2 f2 | e6 dc | BA GA Bc d2- | dc c4 B2 | c8 | z2 A3 B cd | %16
w: reulx sca- * * *|voir qui|mon tra- vail ren-|for- * *|||ce,|O _ _ _|
 e2 e4 e2 | e2 dc d4 | B4 B2 B2 | c2 B2 A2 B2- | B2 AG A4 | G4 z2 c2 | A2 B2 G4 | z2 c2 A2 B2 | %24
w: _ fort a-|mour _ _ _|qui m'as ren-|du sans for- *||ce, don-|ne se- cours,|don- ne se-|
 G3 F GA BG |: AB c4 B2 | c2 G2 G2 G2 | c3 B AB cA | B2 A4 G2 | A8 | z2 c2 A2 B2 | G2 z c A2 B2 |1 %32
w: cours _ _ _ _ _|_ _ _ _|* à ma pai-|n'et _ _ _ _ _|_ _ lan-|gueur,|don- ne se-|cours don- ne se-|
 G3 F GABG :|2 A8- || A8- | A8 |] %36
w: |gueur.|_||
V:2
 A,3 B, C2 D2 | E2 F3 E FG | A3 G/F/ E4 | z2 D2 D2 C2 | F2 E2 A,B,CD | EFGE F2 E2- | ED C2 B,4 | %7
w: Con- * * tent|de- sir, _ _ _|_ _ _ _|qui cau- se|ma dou- * * * *|||
 A,2 C2 D2 E2 | F2 G2 A3 G/F/ | E2 A2 A2 G2 | A2 B2 A3 G/F/ | G2 A2 E2 G2- | GF E2 D3 E | FEDC D4 | %14
w: leur, heu- reulx sca-||voir qui mon tra-|vail ren- for- * *||||
 C2 A,3 B, CD | E2 F4 ED | CDEF G2 A2 | E2 G3 F FE | G4 z2 E2 | E2 E2 F2 D2 |"^#" E/D/E/F/ G4 F2 | %21
w: ce, O _ _ _|_ fort _ _|_ _ _ _ _ _|a- mour _ _ _|_ qui|m'as ren- du sans|for- * * * * *|
 G2 G4 E2 | F2 D2 z2 E2- | E2 C2 D2 B,2 | CB,CD EFGE |: FE ED/C/ D4 | C4 z2 C2 | C2 C2 F3 E | %28
w: ce, don- ne|se- cours, don-|* ne se- *|||cours à|ma pei- n'et _|
 D2 C2 B,4 | A,2 F4 D2 | E2 C2 z2 G2- | G2 E2 F2 D2 |1 E2 CD EFGE :|2 A,8- || A,8- | A,8 |] %36
w: _ _ lan-|gueur, don- ne|se- cours, don-|* ne se- *||gueur.|_||
V:3
 A4 A2 D2 |"^#" A4 z2 d2 | d2 A2 c2 c2 | d3 c B2 A2 | D2 E2 FG AB | c2 G2 A4 | G2 A2 E4 | %7
w: Con- tent de-|sir, con-|tent de- sir qui|cau- se ma dou-|leur, qui cau- * * *||se ma dou-|
 A4 z2 A2 | d2 c2 A4- | A2 A2 c4- | c2 G2 c2 d2 | c2 A2 c2 BA | G2 C2 G4 | F2 A2 G4 | C2 F3 G AB | %15
w: leur, heu-|eulx sca- voir|_ qui mon|_ tra- vail ren-|for- * * * *|||ce, O _ _ _|
 c2 d4 cB | A2 c2 c2 A2 | c2 BA G2 D2 | G6 G2 | A2 G2 F2 G2- | G2 G2 d4 | G4 c4 | F2 G2 C2 c2- | %23
w: fort a- * *|mour, O fort a-|mour _ _ _ qui|m'as ren-|du sans for- ce,|_ sans for-|ce, don-|ne se- cours, don-|
 cB AG F2 G2 | C2 c4 B2 |: A4 G4 | C8 | z2 F2 F2 F2 | G2 A2 E2 E2 | F4 D4 | A4 F2 G2 | %31
w: * * * * ne se-|cours, don- ne|se- *|cours,|à ma pei-|n'et _ _ lan-|gueur,- don-|* ne se-|
 C2 c2 F2 G2 |1 C2 c4 B2 :|2 A,2 F2 F2 F2 || G2 A2 D4 | A,8 |] %36
w: cours, don- ne se-|cours, don- ne|gueur. à ma pei-|n'et * lan-|gueur.|

